icons/svg/hat-graduation.svg

<svg width="24" height="24" viewBox="0 0 24 24" fill="none" xmlns="http://www.w3.org/2000/svg">
<path d="M2.65177 14.7137V9.78125M5.83181 11.8502L9.88063 14.5185C11.2161 15.3987 12.9475 15.3987 14.2829 14.5186L18.3318 11.8502M5.83181 11.8502L3.09864 10.0488C2.80523 9.85548 2.65539 9.54612 2.64913 9.23428M5.83181 11.8502V12.1697V16.911C5.83181 17.4061 5.95072 17.8979 6.27181 18.2747C7.01911 19.1517 8.78617 20.6651 12.0818 20.6651C15.3775 20.6651 17.1445 19.1517 17.8918 18.2747C18.2129 17.8979 18.3318 17.4061 18.3318 16.911V12.1697V11.8502M18.3318 11.8502L20.8116 10.2159C21.5311 9.74165 21.5311 8.68606 20.8115 8.21189L14.2826 3.9099C12.9473 3.03003 11.2163 3.03003 9.88093 3.90991L3.09871 8.37885C2.79246 8.58065 2.64259 8.90881 2.64913 9.23428M2.64913 9.23428V9.78125" stroke="currentColor" stroke-width="1.5" stroke-linecap="round" stroke-linejoin="round"/>
</svg>

<svg xmlns="http://www.w3.org/2000/svg" width="24" height="24" fill="none" viewBox="0 0 24 24"><path stroke="currentColor" stroke-linecap="round" stroke-linejoin="round" stroke-width="1.5" d="M2.652 14.714V9.78m3.18 2.07 4.049 2.667a4 4 0 0 0 4.402 0l4.049-2.668m-12.5 0L3.099 10.05a.99.99 0 0 1-.45-.815m3.183 2.616v5.061c0 .495.119.987.44 1.364.747.877 2.514 2.39 5.81 2.39s5.063-1.513 5.81-2.39c.32-.377.44-.869.44-1.364V11.85m0 0 2.48-1.634a1.2 1.2 0 0 0 0-2.004l-6.53-4.302a4 4 0 0 0-4.401 0L3.099 8.379a.99.99 0 0 0-.45.855m0 0v.547"/></svg>
